;FLAVOR:RepRap
;TIME:5108
;Generated with Cura_SteamEngine 2.3.1
M190 S60
M104 S220
M109 S220
G28 ;Home
G1 Z15.0 F6000 ;Move the platform down 15mm
;Prime the extruder
G92 E0
G1 F200 E3
G92 E0
;LAYER_COUNT:90
;LAYER:0
M107
G1 F2700 E-6.5
G0 F3000 X86.53 Y85.676 Z.1
;TYPE:SKIRT
G1 F2700 E0
G1 F900 X86.803 Y85.422 E0.0062
G1 X87.824 Y84.544 E0.0286
G1 X88.133 Y84.299 E0.03515
G1 X89.24 Y83.495 E0.05791
G1 X89.543 Y83.293 E0.06396
G1 X90.635 Y82.62 E0.08529
G1 X90.967 Y82.432 E0.09164
G1 X92.195 Y81.804 E0.11458
G1 X92.694 Y81.584 E0.12364
G1 X95.041 Y80.703 E0.16533
G1 X95.697 Y80.509 E0.17671
G1 X97.983 Y80.006 E0.21564
G1 X98.498 Y79.922 E0.22431
G1 X99.755 Y79.786 E0.24534
G1 X100.151 Y79.759 E0.25194
G1 X102.476 Y79.701 E0.29062
G1 X102.619 Y79.7 E0.293
G1 X120.096 Y79.785 E0.58364
G1 X120.853 Y79.849 E0.59628
G1 X123.227 Y80.24 E0.63629
G1 X123.836 Y80.381 E0.64668
G1 X125.708 Y80.947 E0.67921
G1 X126.303 Y81.171 E0.68978
G1 X128.678 Y82.249 E0.73316
G1 X129.273 Y82.572 E0.74441
G1 X131.147 Y83.766 E0.78137
G1 X131.575 Y84.072 E0.79012
G1 X132.68 Y84.96 E0.81369
G1 X133.098 Y85.339 E0.82307
G1 X134.936 Y87.211 E0.8667
G1 X135.308 Y87.638 E0.87612
G1 X136.136 Y88.709 E0.89863
G1 X136.356 Y89.018 E0.90494
G1 X137.095 Y90.148 E0.9274
G1 X137.29 Y90.474 E0.93371
G1 X137.927 Y91.64 E0.95581
G1 X138.159 Y92.128 E0.96479
G1 X139.105 Y94.447 E1.00645
G1 X139.304 Y95.043 E1.01689
G1 X139.782 Y96.866 E1.04824
G1 X139.894 Y97.43 E1.0578
G1 X140.201 Y99.664 E1.0953
G1 X140.245 Y100.204 E1.10431
G1 X140.298 Y102.456 E1.14177
G1 X140.299 Y102.592 E1.14403
G1 X140.215 Y120.096 E1.43513
G1 X140.152 Y120.851 E1.44773
G1 X139.764 Y123.213 E1.48753
G1 X139.596 Y123.907 E1.49941
G1 X138.788 Y126.415 E1.54323
G1 X138.586 Y126.935 E1.55251
G1 X138.034 Y128.145 E1.57462
G1 X137.861 Y128.487 E1.581
G1 X137.196 Y129.682 E1.60374
G1 X136.947 Y130.083 E1.61159
G1 X135.842 Y131.677 E1.64384
G1 X135.563 Y132.041 E1.65147
G1 X134.699 Y133.063 E1.67373
G1 X134.321 Y133.461 E1.68286
G1 X132.443 Y135.227 E1.72573
G1 X132.002 Y135.595 E1.73528
G1 X130.833 Y136.456 E1.75942
G1 X130.509 Y136.674 E1.76592
G1 X129.407 Y137.355 E1.78746
G1 X128.961 Y137.599 E1.79591
G1 X126.796 Y138.638 E1.83585
G1 X126.15 Y138.893 E1.8474
G1 X123.839 Y139.615 E1.88766
G1 X123.241 Y139.76 E1.8979
G1 X121.352 Y140.093 E1.92979
G1 X120.734 Y140.161 E1.94013
G1 X117.739 Y140.295 E1.98999
G1 X117.503 Y140.3 E1.99392
G1 X99.988 Y140.225 E2.2852
G1 X99.225 Y140.161 E2.29793
G1 X96.717 Y139.746 E2.3402
G1 X96.111 Y139.604 E2.35055
G1 X94.293 Y139.054 E2.38214
G1 X93.858 Y138.9 E2.38982
G1 X92.627 Y138.394 E2.41195
G1 X92.291 Y138.24 E2.4181
G1 X91.085 Y137.632 E2.44056
G1 X90.753 Y137.448 E2.44687
G1 X89.631 Y136.766 E2.4687
G1 X89.24 Y136.501 E2.47656
G1 X87.581 Y135.254 E2.51107
G1 X87.207 Y134.942 E2.51917
G1 X86.207 Y134.018 E2.54182
G1 X85.93 Y133.74 E2.54834
G1 X85.026 Y132.756 E2.57056
G1 X84.788 Y132.476 E2.57667
G1 X83.971 Y131.437 E2.59865
G1 X83.746 Y131.126 E2.60504
G1 X82.996 Y129.997 E2.62758
G1 X82.801 Y129.678 E2.6338
G1 X82.15 Y128.51 E2.65603
G1 X81.906 Y128.005 E2.66536
G1 X80.904 Y125.578 E2.70903
G1 X80.72 Y125.046 E2.71839
G1 X80.351 Y123.734 E2.74105
G1 X80.263 Y123.363 E2.74739
G1 X80.011 Y122.086 E2.76904
G1 X79.928 Y121.438 E2.7799
G1 X79.708 Y117.686 E2.84241
G1 X79.7 Y117.382 E2.84747
G1 X79.785 Y99.904 E3.13813
G1 X79.826 Y99.304 E3.14813
G1 X79.996 Y98.005 E3.16992
G1 X80.1 Y97.458 E3.17918
G1 X80.733 Y94.94 E3.22235
G1 X80.899 Y94.41 E3.23159
G1 X81.374 Y93.156 E3.25389
G1 X81.597 Y92.655 E3.26301
G1 X82.748 Y90.424 E3.30476
G1 X83.076 Y89.881 E3.31531
G1 X84.193 Y88.278 E3.3478
G1 X84.474 Y87.913 E3.35546
G1 X85.346 Y86.887 E3.37785
G1 X85.6 Y86.611 E3.38409
G1 X86.53 Y85.676 E3.40602
G0 F3000 X86.813 Y85.958
G1 F900 X87.064 Y85.725 E3.41172
G1 X88.085 Y84.847 E3.43411
G1 X88.368 Y84.623 E3.44011
G1 X89.475 Y83.819 E3.46287
G1 X89.752 Y83.633 E3.46841
G1 X90.844 Y82.96 E3.48975
G1 X91.15 Y82.789 E3.49558
G1 X92.378 Y82.161 E3.51851
G1 X92.835 Y81.959 E3.52682
G1 X95.182 Y81.078 E3.56851
G1 X95.782 Y80.9 E3.57892
G1 X98.068 Y80.397 E3.61785
G1 X98.541 Y80.32 E3.62582
G1 X99.798 Y80.184 E3.64684
G1 X100.161 Y80.159 E3.65289
G1 X102.486 Y80.101 E3.69157
G1 X102.617 Y80.1 E3.69375
G1 X120.094 Y80.185 E3.98439
G1 X120.788 Y80.243 E3.99598
G1 X123.162 Y80.634 E4.03599
G1 X123.72 Y80.764 E4.04552
G1 X125.592 Y81.33 E4.07804
G1 X126.138 Y81.535 E4.08774
G1 X128.513 Y82.613 E4.13111
G1 X129.058 Y82.909 E4.14143
G1 X130.932 Y84.103 E4.17838
G1 X131.324 Y84.384 E4.1864
G1 X132.429 Y85.272 E4.20998
G1 X132.813 Y85.619 E4.21858
G1 X134.651 Y87.491 E4.26221
G1 X134.992 Y87.883 E4.27085
G1 X135.82 Y88.954 E4.29336
G1 X136.021 Y89.237 E4.29914
G1 X136.76 Y90.367 E4.32159
G1 X136.939 Y90.665 E4.32737
G1 X137.576 Y91.831 E4.34947
G1 X137.789 Y92.279 E4.35772
G1 X138.735 Y94.598 E4.39937
G1 X138.917 Y95.144 E4.40894
G1 X139.395 Y96.967 E4.44028
G1 X139.498 Y97.484 E4.44905
G1 X139.805 Y99.718 E4.48655
G1 X139.845 Y100.213 E4.49481
G1 X139.898 Y102.465 E4.53227
G1 X139.899 Y102.59 E4.53435
G1 X139.815 Y120.094 E4.82544
G1 X139.757 Y120.786 E4.83699
G1 X139.369 Y123.148 E4.8768
G1 X139.215 Y123.784 E4.88768
G1 X138.407 Y126.292 E4.9315
G1 X138.222 Y126.769 E4.94001
G1 X137.67 Y127.979 E4.96212
G1 X137.512 Y128.293 E4.96797
G1 X136.847 Y129.488 E4.99071
G1 X136.618 Y129.855 E4.99791
G1 X135.513 Y131.449 E5.03016
G1 X135.257 Y131.783 E5.03716
G1 X134.393 Y132.805 E5.05942
G1 X134.047 Y133.169 E5.06777
G1 X132.169 Y134.935 E5.11064
G1 X131.764 Y135.273 E5.11941
G1 X130.595 Y136.134 E5.14355
G1 X130.299 Y136.334 E5.1495
G1 X129.197 Y137.015 E5.17104
G1 X128.788 Y137.239 E5.17879
G1 X126.623 Y138.278 E5.21873
G1 X126.031 Y138.511 E5.22931
G1 X123.72 Y139.233 E5.26957
G1 X123.172 Y139.366 E5.27895
G1 X121.283 Y139.699 E5.31085
G1 X120.716 Y139.762 E5.32034
G1 X117.721 Y139.896 E5.37019
G1 X117.505 Y139.9 E5.37379
G1 X99.99 Y139.825 E5.66507
G1 X99.291 Y139.766 E5.67673
G1 X96.783 Y139.351 E5.71901
G1 X96.227 Y139.221 E5.7285
G1 X94.409 Y138.671 E5.76009
G1 X94.01 Y138.53 E5.76713
G1 X92.779 Y138.024 E5.78926
G1 X92.471 Y137.883 E5.79489
G1 X91.265 Y137.275 E5.81735
G1 X90.961 Y137.106 E5.82314
G1 X89.839 Y136.424 E5.84497
G1 X89.48 Y136.181 E5.85218
G1 X87.821 Y134.934 E5.8867
G1 X87.479 Y134.649 E5.8941
G1 X86.479 Y133.725 E5.91674
G1 X86.225 Y133.47 E5.92273
G1 X85.321 Y132.486 E5.94495
G1 X85.102 Y132.229 E5.95056
G1 X84.285 Y131.19 E5.97255
G1 X84.079 Y130.905 E5.97839
G1 X83.329 Y129.776 E6.00093
G1 X83.151 Y129.483 E6.00664
G1 X82.5 Y128.315 E6.02887
G1 X82.276 Y127.852 E6.03743
G1 X81.274 Y125.425 E6.08109
G1 X81.105 Y124.937 E6.08968
G1 X80.736 Y123.625 E6.11235
G1 X80.655 Y123.286 E6.11814
G1 X80.403 Y122.009 E6.13979
G1 X80.328 Y121.415 E6.14974
G1 X80.108 Y117.663 E6.21225
G1 X80.1 Y117.384 E6.21689
G1 X80.185 Y99.906 E6.50755
G1 X80.222 Y99.356 E6.51672
G1 X80.392 Y98.057 E6.53851
G1 X80.488 Y97.555 E6.54701
G1 X81.121 Y95.037 E6.59018
G1 X81.273 Y94.551 E6.59865
G1 X81.748 Y93.297 E6.62095
G1 X81.953 Y92.839 E6.6293
G1 X83.104 Y90.608 E6.67105
G1 X83.404 Y90.109 E6.68073
G1 X84.521 Y88.506 E6.71322
G1 X84.778 Y88.173 E6.72021
G1 X85.65 Y87.147 E6.74261
G1 X85.883 Y86.893 E6.74834
G1 X86.813 Y85.958 E6.77027
G0 F3000 X87.097 Y86.24
G1 F900 X87.325 Y86.028 E6.77545
G1 X88.346 Y85.15 E6.79784
G1 X88.603 Y84.947 E6.80329
G1 X89.71 Y84.143 E6.82604
G1 X89.962 Y83.974 E6.83109
G1 X91.054 Y83.301 E6.85242
G1 X91.332 Y83.145 E6.85772
G1 X92.56 Y82.517 E6.88066
G1 X92.975 Y82.333 E6.88821
G1 X95.322 Y81.452 E6.9299
G1 X95.868 Y81.29 E6.93937
G1 X98.154 Y80.787 E6.97829
G1 X98.584 Y80.717 E6.98554
G1 X99.841 Y80.581 E7.00656
G1 X100.171 Y80.559 E7.01206
G1 X102.496 Y80.501 E7.05074
G1 X102.615 Y80.5 E7.05272
G1 X120.092 Y80.585 E7.34337
G1 X120.723 Y80.638 E7.3539
G1 X123.097 Y81.029 E7.39391
G1 X123.605 Y81.147 E7.40258
G1 X125.477 Y81.713 E7.43511
G1 X125.972 Y81.9 E7.44391
G1 X128.347 Y82.978 E7.48728
G1 X128.843 Y83.247 E7.49666
G1 X130.717 Y84.441 E7.53362
G1 X131.074 Y84.696 E7.54091
G1 X132.179 Y85.584 E7.56449
G1 X132.527 Y85.9 E7.5723
G1 X134.365 Y87.772 E7.61593
G1 X134.676 Y88.127 E7.62378
G1 X135.504 Y89.198 E7.64629
G1 X135.687 Y89.456 E7.65156
G1 X136.426 Y90.586 E7.67401
G1 X136.588 Y90.857 E7.67926
G1 X137.225 Y92.023 E7.70136
G1 X137.419 Y92.43 E7.70885
G1 X138.365 Y94.749 E7.7505
G1 X138.53 Y95.245 E7.7592
G1 X139.008 Y97.068 E7.79054
G1 X139.102 Y97.538 E7.79851
G1 X139.409 Y99.772 E7.83601
G1 X139.445 Y100.223 E7.84353
G1 X139.498 Y102.475 E7.881
G1 X139.499 Y102.588 E7.88287
G1 X139.415 Y120.092 E8.17397
G1 X139.362 Y120.721 E8.18447
G1 X138.974 Y123.083 E8.22427
G1 X138.834 Y123.662 E8.23418
G1 X138.026 Y126.17 E8.278
G1 X137.858 Y126.603 E8.28572
G1 X137.306 Y127.813 E8.30784
G1 X137.162 Y128.098 E8.31315
G1 X136.497 Y129.293 E8.33589
G1 X136.289 Y129.627 E8.34244
G1 X135.184 Y131.221 E8.37469
G1 X134.952 Y131.524 E8.38104
G1 X134.088 Y132.546 E8.40329
G1 X133.773 Y132.878 E8.41091
G1 X131.895 Y134.644 E8.45378
G1 X131.527 Y134.951 E8.46175
G1 X130.358 Y135.812 E8.48589
G1 X130.089 Y135.994 E8.49129
G1 X128.987 Y136.675 E8.51283
G1 X128.615 Y136.878 E8.51988
G1 X126.45 Y137.917 E8.55982
G1 X125.912 Y138.129 E8.56943
G1 X123.601 Y138.851 E8.6097
G1 X123.102 Y138.972 E8.61824
G1 X121.213 Y139.305 E8.65014
G1 X120.698 Y139.362 E8.65875
G1 X117.703 Y139.496 E8.70861
G1 X117.507 Y139.5 E8.71187
G1 X99.992 Y139.425 E9.00315
G1 X99.356 Y139.371 E9.01376
G1 X96.848 Y138.956 E9.05604
G1 X96.343 Y138.839 E9.06466
G1 X94.525 Y138.289 E9.09625
G1 X94.162 Y138.16 E9.10265
G1 X92.931 Y137.654 E9.12479
G1 X92.651 Y137.526 E9.12991
G1 X91.445 Y136.918 E9.15237
G1 X91.168 Y136.764 E9.15764
G1 X90.046 Y136.082 E9.17947
G1 X89.721 Y135.861 E9.18601
G1 X88.062 Y134.614 E9.22052
G1 X87.75 Y134.355 E9.22727
G1 X86.75 Y133.431 E9.24991
G1 X86.519 Y133.199 E9.25535
G1 X85.615 Y132.215 E9.27757
G1 X85.417 Y131.981 E9.28267
G1 X84.6 Y130.942 E9.30465
G1 X84.412 Y130.683 E9.30997
G1 X83.662 Y129.554 E9.33252
G1 X83.5 Y129.288 E9.33769
G1 X82.849 Y128.12 E9.35993
G1 X82.646 Y127.699 E9.3677
G1 X81.644 Y125.272 E9.41137
G1 X81.49 Y124.829 E9.41917
G1 X81.121 Y123.517 E9.44183
G1 X81.048 Y123.208 E9.44712
G1 X80.796 Y121.931 E9.46876
G1 X80.727 Y121.391 E9.47781
G1 X80.507 Y117.639 E9.54032
G1 X80.5 Y117.386 E9.54453
G1 X80.585 Y99.908 E9.83519
G1 X80.619 Y99.408 E9.84352
G1 X80.789 Y98.109 E9.86531
G1 X80.876 Y97.653 E9.87303
G1 X81.509 Y95.135 E9.91621
G1 X81.647 Y94.693 E9.92391
G1 X82.122 Y93.439 E9.94621
G1 X82.308 Y93.022 E9.9538
G1 X83.459 Y90.791 E9.99555
G1 X83.732 Y90.338 E10.00435
G1 X84.849 Y88.735 E10.03684
G1 X85.083 Y88.432 E10.0432
G1 X85.955 Y87.406 E10.0656
G1 X86.167 Y87.175 E10.07081
G1 X87.097 Y86.24 E10.09274
G0 F3000 X87.381 Y86.522
G1 F900 X87.586 Y86.331 E10.0974
G1 X88.607 Y85.453 E10.1198
G1 X88.838 Y85.27 E10.1247
G1 X89.945 Y84.466 E10.14745
G1 X90.172 Y84.314 E10.15199
G1 X91.264 Y83.641 E10.17332
G1 X91.514 Y83.501 E10.17809
G1 X92.742 Y82.873 E10.20103
G1 X93.116 Y82.708 E10.20782
G1 X95.463 Y81.827 E10.24951
G1 X95.954 Y81.681 E10.25803
G1 X98.24 Y81.178 E10.29696
G1 X98.627 Y81.115 E10.30348
G1 X99.884 Y80.979 E10.32451
G1 X100.181 Y80.959 E10.32946
G1 X102.506 Y80.901 E10.36813
G1 X102.614 Y80.9 E10.36993
G1 X120.091 Y80.985 E10.66058
G1 X120.658 Y81.033 E10.67004
G1 X123.032 Y81.424 E10.71005
G1 X123.489 Y81.53 E10.71785
G1 X125.361 Y82.096 E10.75038
G1 X125.807 Y82.264 E10.7583
G1 X128.182 Y83.342 E10.80168
G1 X128.628 Y83.584 E10.81011
G1 X130.502 Y84.778 E10.84707
G1 X130.823 Y85.008 E10.85363
G1 X131.928 Y85.896 E10.87721
G1 X132.242 Y86.18 E10.88425
G1 X134.08 Y88.052 E10.92788
G1 X134.359 Y88.372 E10.93494
G1 X135.187 Y89.443 E10.95745
G1 X135.352 Y89.675 E10.96219
G1 X136.091 Y90.805 E10.98464
G1 X136.237 Y91.049 E10.98937
G1 X136.874 Y92.215 E11.01146
G1 X137.048 Y92.581 E11.0182
G1 X137.994 Y94.9 E11.05985
G1 X138.143 Y95.347 E11.06769
G1 X138.621 Y97.17 E11.09903
G1 X138.705 Y97.593 E11.1062
G1 X139.012 Y99.827 E11.1437
G1 X139.045 Y100.232 E11.15046
G1 X139.098 Y102.484 E11.18792
G1 X139.099 Y102.586 E11.18962
G1 X139.015 Y120.09 E11.48072
G1 X138.967 Y120.657 E11.49018
G1 X138.579 Y123.019 E11.52999
G1 X138.454 Y123.539 E11.53888
G1 X137.646 Y126.047 E11.5827
G1 X137.494 Y126.437 E11.58966
G1 X136.942 Y127.647 E11.61178
G1 X136.813 Y127.904 E11.61656
G1 X136.148 Y129.099 E11.6393
G1 X135.961 Y129.399 E11.64518
G1 X134.856 Y130.993 E11.67744
G1 X134.646 Y131.266 E11.68316
G1 X133.782 Y132.288 E11.70542
G1 X133.499 Y132.587 E11.71227
G1 X131.621 Y134.353 E11.75514
G1 X131.29 Y134.629 E11.7623
G1 X130.121 Y135.49 E11.78645
G1 X129.878 Y135.653 E11.79131
G1 X128.776 Y136.334 E11.81286
G1 X128.442 Y136.518 E11.8192
G1 X126.277 Y137.557 E11.85913
G1 X125.793 Y137.747 E11.86778
G1 X123.482 Y138.469 E11.90805
G1 X123.033 Y138.578 E11.91573
G1 X121.144 Y138.911 E11.94763
G1 X120.68 Y138.962 E11.95539
G1 X117.685 Y139.096 E12.00525
G1 X117.509 Y139.1 E12.00817
G1 X99.994 Y139.025 E12.29945
G1 X99.421 Y138.977 E12.30902
G1 X96.913 Y138.562 E12.35129
G1 X96.459 Y138.456 E12.35904
G1 X94.641 Y137.906 E12.39063
G1 X94.314 Y137.79 E12.3964
G1 X93.083 Y137.284 E12.41853
G1 X92.831 Y137.169 E12.42314
G1 X91.625 Y136.561 E12.4456
G1 X91.376 Y136.422 E12.45034
G1 X90.254 Y135.74 E12.47218
G1 X89.961 Y135.542 E12.47806
G1 X88.302 Y134.295 E12.51257
G1 X88.022 Y134.061 E12.51864
G1 X87.022 Y133.137 E12.54128
G1 X86.814 Y132.929 E12.54618
G1 X85.91 Y131.945 E12.5684
G1 X85.731 Y131.734 E12.573
G1 X84.914 Y130.695 E12.59498
G1 X84.745 Y130.462 E12.59977
G1 X83.995 Y129.333 E12.62231
G1 X83.849 Y129.094 E12.62697
G1 X83.198 Y127.926 E12.6492
G1 X83.015 Y127.547 E12.6562
G1 X82.013 Y125.12 E12.69987
G1 X81.875 Y124.721 E12.70689
G1 X81.506 Y123.409 E12.72955
G1 X81.44 Y123.131 E12.73431
G1 X81.188 Y121.854 E12.75595
G1 X81.126 Y121.368 E12.7641
G1 X80.906 Y117.616 E12.8266
G1 X80.9 Y117.387 E12.83041
G1 X80.985 Y99.909 E13.12108
G1 X81.015 Y99.46 E13.12856
G1 X81.185 Y98.161 E13.15035
G1 X81.264 Y97.75 E13.15731
G1 X81.897 Y95.232 E13.20048
G1 X82.021 Y94.835 E13.2074
G1 X82.496 Y93.581 E13.2297
G1 X82.664 Y93.205 E13.23655
G1 X83.815 Y90.974 E13.2783
G1 X84.06 Y90.567 E13.2862
G1 X85.177 Y88.964 E13.31869
G1 X85.388 Y88.691 E13.32443
G1 X86.26 Y87.665 E13.34682
G1 X86.451 Y87.457 E13.35152
G1 X87.381 Y86.522 E13.37345
G0 F3000 X87.664 Y86.804
G1 F900 X87.847 Y86.635 E13.37759
G1 X88.868 Y85.757 E13.39998
G1 X89.074 Y85.594 E13.40435
G1 X90.181 Y84.79 E13.4271
G1 X90.382 Y84.655 E13.43113
G1 X91.474 Y83.982 E13.45246
G1 X91.696 Y83.857 E13.4567
G1 X92.924 Y83.229 E13.47964
G1 X93.256 Y83.082 E13.48567
G1 X95.603 Y82.201 E13.52736
G1 X96.04 Y82.072 E13.53494
G1 X98.326 Y81.569 E13.57387
G1 X98.67 Y81.513 E13.57966
G1 X99.927 Y81.377 E13.60069
G1 X100.191 Y81.359 E13.60509
G1 X102.516 Y81.301 E13.64377
G1 X102.612 Y81.3 E13.64536
G1 X120.089 Y81.385 E13.93601
G1 X120.593 Y81.428 E13.94442
G1 X122.967 Y81.819 E13.98443
G1 X123.373 Y81.913 E13.99137
G1 X125.245 Y82.479 E14.02389
G1 X125.642 Y82.628 E14.03094
G1 X128.017 Y83.706 E14.07431
G1 X128.413 Y83.921 E14.08181
G1 X130.287 Y85.115 E14.11876
G1 X130.573 Y85.32 E14.12461
G1 X131.678 Y86.208 E14.14819
G1 X131.956 Y86.46 E14.15443
G1 X133.794 Y88.332 E14.19806
G1 X134.043 Y88.617 E14.20435
G1 X134.871 Y89.688 E14.22686
G1 X135.017 Y89.894 E14.23106
G1 X135.756 Y91.024 E14.25352
G1 X135.886 Y91.241 E14.25772
G1 X136.523 Y92.407 E14.27982
G1 X136.678 Y92.732 E14.28581
G1 X137.624 Y95.051 E14.32746
G1 X137.756 Y95.448 E14.33441
